X: 116
T:Miss Johnson's Reel. JMT.111
M:C
L:1/8
Q:200
S:J,Moore ,Tyneside,1841.(79a)
R:Reel
O:England
A:Northumbria
Z:vmp.J.A
K:E
E| EBGB EBGB | (ag)fe (fc)ce | EBGB EBGB | fffg e/2e/2e :|!
|:B | egbe gebe | dBfB dBfB | egbe gebe | Bagf f2 ec |!
 egbe gebe | dBfB gBfB | egfa gbag | fefg e/2e/2e e2 :|
